X: 24362
T: Lovat Scouts, The
R: polka
M: 2/4
K: Dmajor
|:F/E/|DF AD|GB d>B|AF FE/D/|FE EF/E/|
DF AD|GB dc/B/|Ad/A/ FA/F/|E2 D-:|
D|dd/e/ dA|BG B/dB/|AF FE/D/|FE EF/A/|
dd/e/ dA|BG B/dB/|AF GF/E/|D2 D2|
dd/e/ dA|BG B/dB/|AF FE/D/|FE EF/A/|
DF AD|GB dc/B/|Ad/A/ FA/F/|ED D||

